**kern	**kern	**dynam
*part1	*part1	*part1
*staff2	*staff1	*
*I"Piano	*	*
*clefF4	*clefG2	*
*k[b-e-]	*k[b-e-]	*
=1	=1	=1
8r	8r	.
*	*^	*
(16DLL 16B-	(16b-LL	8f	p
16FJJ 16cn	16aJJ 16ccn	.	.
*^	*v	*v	*
8.dL	4B-	8.fL 8.b- 8.dd	<
16e-XJk	.	16gJk 16b- 16ee-X	.
=	=	=	=
[2B-	4D 4A-X	4f 4b- 4ff	[ >
.	4E- 4G	4e- 4b- 4ee-	]
=	=	=	=
4B-]	4BB-) 4F	4d) 4b- 4dd	.
*v	*v	*	*
4GG	(4c 4en 4b-	pp
=	=	=
2FF	2c) 2e-X 2a	.
=	=	=
(8BB-L	16r	mf
.	(16B-'LL 16d 16b-	<
8AA	16r	.
.	16B-' 16d 16b-	.
8GG	16r	.
.	16B-' 16d 16b-	.
8FF#XJ	16r	[
.	16B-'JJ) 16d 16b-	.
=	=	=
8AAL	16r	.
.	(16B-'LL 16d 16b-	.
8GG	16r	.
.	16B-' 16d 16b-	.
8FF#X	16r	>
.	16B-' 16d 16b-	.
8GGJ)	16r	.
.	16B-'JJ) 16d 16b-	.
=	=	=
(8D'L	16r	] f
.	(16d'LL 16dd	<
8C' 8D	16r	.
.	16d' 16cc 16dd	.
8BB-' 8D	16r	.
.	16d' 16b- 16dd	[
8AA'J) 8D	16r	.
.	16d'JJ) 16a 16dd	.
=	=	=
*-	*-	*-
!!!system-decoration: {(s1,s2)}
